assets/illustrations/default/accessibility-5.svg

<svg xmlns="http://www.w3.org/2000/svg" width="1080" height="1081" fill="none"><path fill="#C5D9FB" d="M349.764 723.041c172.182 0 311.763-139.582 311.763-311.764S521.946 99.514 349.764 99.514C177.581 99.514 38 239.095 38 411.277s139.581 311.764 311.764 311.764"/><path fill="#FCAA73" d="m403.543 507.379-2.938 18.444 15.507 43.419-4.734 5.387-6.366-25.3-6.202 4.896 4.08 37.052 47.662-2.285 21.873-19.75-20.567-40.48 1.306-15.017z"/><path fill="#35DE90" d="M765.58 415.316c26.143 0 47.336-21.193 47.336-47.336s-21.193-47.335-47.336-47.335-47.336 21.193-47.336 47.335c0 26.143 21.193 47.336 47.336 47.336M486.952 263.678c26.142 0 47.335-21.193 47.335-47.336s-21.193-47.336-47.335-47.336c-26.143 0-47.336 21.193-47.336 47.336s21.193 47.336 47.336 47.336M432.923 412.705c26.143 0 47.336-21.193 47.336-47.336s-21.193-47.336-47.336-47.336-47.336 21.193-47.336 47.336 21.193 47.336 47.336 47.336"/><path fill="#C5D9FB" d="m903.941 544.785-21.124-2.003-46.635 491.868 21.124 2z"/><path fill="#FCAA73" d="m675.478 18.185-83.409-.979-6.366 6.366-1.795 156.698 61.537.652.326-25.136 28.075.326c2.448-2.449 3.917-3.754 6.366-6.366l1.305-125.195z"/><path fill="#F06305" d="m670.256 121.343-15.507-.163c-.979 0-1.632-.816-1.632-1.632 0-.817.816-1.633 1.632-1.633l12.895.164-12.731-29.87c-.327-.817 0-1.797.816-2.123s1.795 0 2.122.816l13.711 32.32c.164.489.163 1.142-.163 1.468-.163.49-.653.653-1.143.653"/><path fill="url(#a)" d="M645.771 155.949h-26.442l26.279 14.853z"/><path fill="#FCAA73" d="m875.593 547.039 28.565 17.629-6.693 8.651-56.313-21.056-24.974-43.092 38.848-20.077 7.183 11.589 70.514 21.22 15.342 52.885-9.467-.653-22.851-40.48-23.015-4.897z"/><path fill="#35DE90" d="M746.321 275.595c26.143 0 47.336-21.192 47.336-47.335s-21.193-47.336-47.336-47.336-47.336 21.193-47.336 47.336 21.193 47.335 47.336 47.335"/><path fill="#35DE90" d="m793.341 220.982-93.458 12.897 19.279 139.702 93.458-12.897z"/><path fill="#35DE90" d="m809.286 351.428-86.854 36.842 59.278 139.748 86.855-36.842zM477.321 380.876l-88.796-31.993 53.865-148.536 88.959 31.992z"/><path fill="#35DE90" d="m478.748 370.214-93.779-10.283-15.976 145.698 93.778 10.283zM746.32 181.084l-259.694-12.078 15.997 291.197H705.35z"/><path fill="url(#b)" d="m718.406 371.408 17.466-118.993 12.405 195.872-26.116-61.372c0-.163-2.776-5.224-3.755-15.507"/><path fill="url(#c)" d="m494.787 334.192 29.38-81.939-22.525 187.221z"/><path fill="#0096FA" d="M702.248 545.245H499.52l3.101-85.042h202.891z"/><path fill="url(#d)" d="m751.218 995.588-26.606-245.167c0-4.081-.49-7.998-1.306-11.752L702.25 545.245H592.235l22.199 205.176c0 3.917.326 7.671 1.142 11.262l25.464 233.905z"/><path fill="#0096FA" d="M630.92 750.42H520.906l-21.383-205.176h109.852zM570.853 995.587H461.002l59.904-245.167H630.92z"/><path fill="#0096FA" d="M575.911 805.429c30.38 0 55.007-24.628 55.007-55.008s-24.627-55.007-55.007-55.007-55.008 24.627-55.008 55.007 24.628 55.008 55.008 55.008"/><mask id="e" width="101" height="75" x="875" y="517" maskUnits="userSpaceOnUse" style="mask-type:luminance"><path fill="#fff" d="m893.388 557.977-17.791-10.936 17.139-18.281 67.413-11.263 14.853 37.705-18.771 36.073z"/></mask><g mask="url(#e)"><path fill="#C5D9FB" d="m927.91 554.844 2.187-23.074-65.159-6.178-2.188 23.074z"/><path fill="#072F73" d="M928.48 555.366c6.401 0 11.59-5.189 11.59-11.589s-5.189-11.589-11.59-11.589-11.588 5.188-11.588 11.589c0 6.4 5.188 11.589 11.588 11.589"/></g><path fill="#000" d="M682.663 10.514h-99.732c-3.428 0-6.039 2.774-6.039 6.039v12.079c0 3.428-2.775 6.039-6.04 6.039-3.427 0-6.039 2.775-6.039 6.04v88.958c0 3.428 2.775 6.039 6.039 6.039h19.751c3.428 0 6.039-2.774 6.039-6.039V51.157c0-3.428 2.775-6.04 6.04-6.04h80.144c3.428 0 6.039-2.774 6.039-6.039V16.88c0-3.59-2.774-6.365-6.202-6.365"/><path fill="#FCAA73" d="M610.678 119.712h-28.401c-3.591 0-6.366-2.938-6.366-6.366v-25.79h34.767z"/><path fill="#072F73" d="m653.606 995.751 85.695.489c1.142 5.22 4.733 23.99 25.136 25.3 38.522 2.61 23.016 21.06 23.016 21.06H646.261zM471.61 995.751l85.694.489c1.143 5.22 4.733 23.99 25.137 25.3 38.521 2.61 23.015 21.06 23.015 21.06H464.265z"/><path fill="#fff" d="M442.226 615.596h-8.162v198.158h8.162z"/><path fill="#F06305" d="m247.171 858.804-6.856 201.746h23.341l48.479-161.918zM547.998 866.802l6.692 201.748h-23.178l-48.478-161.921z"/><path fill="url(#f)" d="M653.116 799.063c0 .816 0 1.795-.163 2.611-1.143 7.345-6.693 13.059-13.875 14.365-.979.163-2.122.326-3.264.326l-50.763 2.611c-3.591.164-6.856 1.47-9.468 3.428-4.081 3.102-6.692 7.998-6.692 13.548v59.578c-.164 19.75-6.855 38.032-18.118 52.559-2.448 3.265-5.223 6.529-8.325 9.467a86.6 86.6 0 0 1-37.542 22.036c-.816.326-1.632.49-2.612.653a89.9 89.9 0 0 1-22.199 2.774c-6.692 0-13.057-.815-19.26-2.121-1.143-.163-2.122-.49-3.265-.816-5.06-1.306-9.957-3.102-14.69-5.224l-63.985-27.912-35.258-15.343-36.726-15.996-24.32-10.61-39.501 70.188-47.989 85.365H171.76l35.583-191.137c-4.407.653-8.977.98-13.548.98-48.968 0-88.795-39.664-88.795-88.796 0-18.281 5.55-35.257 14.854-49.294 29.544 53.048 80.471 92.713 141.191 107.077a219 219 0 0 0 51.09 6.039c10.773 0 21.383-.816 31.829-2.285 10.283-1.469 20.24-3.591 30.034-6.529 21.546-6.366 41.623-15.67 59.904-27.912 7.019-4.733 13.875-9.793 20.24-15.343a153 153 0 0 0 10.774-9.793c1.795-1.796 3.754-3.592 5.549-5.551l.489.164 16.65-17.139 20.567-21.056c7.508-8.978 18.934-14.691 31.666-14.691 21.219 0 38.685 15.996 41.133 36.563h.326c0 8.977 7.019 16.486 15.997 16.975l38.521 2.449h1.632c6.039.653 11.263 4.244 13.874 9.467 1.143 2.775 1.796 5.387 1.796 8.325"/><path fill="#FCAA73" d="m506.538 892.265-3.917 80.144-.327 7.998-.327 5.06-1.306 26.113-2.775 58.6h-18.117l-13.222-53.37-6.04-24.65-2.937-11.915-21.547-87.164z"/><path fill="#F06305" d="M522.37 829.587c8.744 0 15.833-7.088 15.833-15.833 0-8.744-7.089-15.833-15.833-15.833s-15.832 7.089-15.832 15.833 7.088 15.833 15.832 15.833"/><path fill="#F06305" d="m506.538 764.459 31.665 7.509v41.786h-31.665z"/><path fill="#8C3A03" d="M648.548 802.329c7.302 0 13.222-5.92 13.222-13.222s-5.92-13.221-13.222-13.221-13.221 5.919-13.221 13.221 5.919 13.222 13.221 13.222M558.281 773.272a5.876 5.876 0 1 0 0-11.753 5.876 5.876 0 0 0 0 11.753"/><path fill="#072F73" d="M552.405 862.561c-23.994 0-46.03-8.162-63.658-21.71h-.164c-15.506-12.079-27.585-28.401-34.277-47.172a221 221 0 0 1-9.631 7.672c-37.868 28.401-79.654 38.195-94.671 40.97l-5.877.979c-8.487 22.035-7.997 41.622-7.997 41.622v3.265c0 15.343 2.611 30.034 7.507 43.582l35.258 15.343c-11.59-16.812-18.281-37.053-18.281-58.925 0-1.632-.001-3.265.162-4.897 45.867-5.06 82.757-19.26 104.956-29.87 15.833 14.527 35.256 24.974 56.802 30.197v43.255h46.357v-65.454c-5.387.653-10.936 1.143-16.486 1.143"/><mask id="g" width="118" height="83" x="373" y="542" maskUnits="userSpaceOnUse" style="mask-type:luminance"><path fill="#fff" d="m411.215 555.527 4.733 13.058 47.172 8.978 9.305-8.325-8.162-15.996 25.953-10.446-7.672 67.739-42.765 14.364-50.274-12.406-16.486-61.046z"/></mask><g mask="url(#g)"><path fill="#0C4EC0" d="M438.145 621.308c-21.873 0-39.501-16.649-39.501-37.216 0-20.566 17.792-37.215 39.501-37.215 21.872 0 39.5 16.649 39.5 37.215s-17.791 37.216-39.5 37.216m0-62.843c-15.507 0-28.076 11.59-28.076 25.791s12.569 25.789 28.076 25.789 28.074-11.588 28.074-25.789-12.568-25.791-28.074-25.791"/></g><defs><linearGradient id="a" x1="632.502" x2="639.667" y1="163.419" y2="138.02" gradientUnits="userSpaceOnUse"><stop stop-color="#FCAA73"/><stop offset=".11" stop-color="#FBA66C"/><stop offset=".269" stop-color="#F99959"/><stop offset=".458" stop-color="#F68539"/><stop offset=".668" stop-color="#F1690E"/><stop offset=".706" stop-color="#F06305"/></linearGradient><linearGradient id="b" x1="748.721" x2="713.88" y1="350.428" y2="349.338" gradientUnits="userSpaceOnUse"><stop offset=".188" stop-color="#35DE90"/><stop offset=".4" stop-color="#33DA8D"/><stop offset=".627" stop-color="#2DCD83"/><stop offset=".86" stop-color="#23B873"/><stop offset="1" stop-color="#1BA766"/></linearGradient><linearGradient id="c" x1="520.299" x2="490.331" y1="347.491" y2="340.88" gradientUnits="userSpaceOnUse"><stop offset=".227" stop-color="#35DE90"/><stop offset=".429" stop-color="#33DA8D"/><stop offset=".645" stop-color="#2DCD83"/><stop offset=".866" stop-color="#23B873"/><stop offset="1" stop-color="#1BA766"/></linearGradient><linearGradient id="d" x1="718.988" x2="560.48" y1="765.788" y2="781.386" gradientUnits="userSpaceOnUse"><stop offset=".1" stop-color="#0096FA"/><stop offset=".341" stop-color="#058DF8"/><stop offset=".735" stop-color="#1274F3"/><stop offset=".901" stop-color="#1968F0"/></linearGradient><linearGradient id="f" x1="373.402" x2="447.267" y1="768.483" y2="1096.76" gradientUnits="userSpaceOnUse"><stop offset=".442" stop-color="#FCAA73"/><stop offset=".497" stop-color="#FBA56B"/><stop offset=".583" stop-color="#F99654"/><stop offset=".69" stop-color="#F57E30"/><stop offset=".795" stop-color="#F06305"/></linearGradient></defs></svg>

<svg width="1080" height="1081" viewBox="0 0 1080 1081" fill="none" xmlns="http://www.w3.org/2000/svg">
<path d="M349.764 723.041C521.946 723.041 661.527 583.459 661.527 411.277C661.527 239.095 521.946 99.5137 349.764 99.5137C177.581 99.5137 38 239.095 38 411.277C38 583.459 177.581 723.041 349.764 723.041Z" fill="#C5D9FB"/>
<path d="M403.543 507.379L400.605 525.823L416.112 569.242L411.378 574.629L405.012 549.329L398.81 554.225L402.89 591.277L450.552 588.992L472.425 569.242L451.858 528.762L453.164 513.745L403.543 507.379Z" fill="#FCAA73"/>
<path d="M765.58 415.316C791.723 415.316 812.916 394.123 812.916 367.98C812.916 341.838 791.723 320.645 765.58 320.645C739.437 320.645 718.244 341.838 718.244 367.98C718.244 394.123 739.437 415.316 765.58 415.316Z" fill="#35DE90"/>
<path d="M486.952 263.678C513.094 263.678 534.287 242.485 534.287 216.342C534.287 190.199 513.094 169.006 486.952 169.006C460.809 169.006 439.616 190.199 439.616 216.342C439.616 242.485 460.809 263.678 486.952 263.678Z" fill="#35DE90"/>
<path d="M432.923 412.705C459.066 412.705 480.259 391.512 480.259 365.369C480.259 339.226 459.066 318.033 432.923 318.033C406.78 318.033 385.587 339.226 385.587 365.369C385.587 391.512 406.78 412.705 432.923 412.705Z" fill="#35DE90"/>
<path d="M903.941 544.785L882.817 542.782L836.182 1034.65L857.306 1036.65L903.941 544.785Z" fill="#C5D9FB"/>
<path d="M675.478 18.1848L592.069 17.2061L585.703 23.5717L583.908 180.27L645.445 180.922L645.771 155.786L673.846 156.112C676.294 153.663 677.763 152.358 680.212 149.746L681.517 24.5513L675.478 18.1848Z" fill="#FCAA73"/>
<path d="M670.256 121.343L654.749 121.18C653.77 121.18 653.117 120.364 653.117 119.548C653.117 118.731 653.933 117.915 654.749 117.915L667.644 118.079L654.913 88.2085C654.586 87.3923 654.913 86.4125 655.729 86.086C656.545 85.7596 657.524 86.086 657.851 86.9022L671.562 119.222C671.726 119.711 671.725 120.364 671.399 120.69C671.236 121.18 670.746 121.343 670.256 121.343Z" fill="#F06305"/>
<path d="M645.771 155.949H619.329L645.608 170.802L645.771 155.949Z" fill="url(#paint0_linear_18735_2524)"/>
<path d="M875.593 547.039L904.158 564.668L897.465 573.319L841.152 552.263L816.178 509.171L855.026 489.094L862.209 500.683L932.723 521.903L948.065 574.788L938.598 574.135L915.747 533.655L892.732 528.758L875.593 547.039Z" fill="#FCAA73"/>
<path d="M746.321 275.595C772.464 275.595 793.657 254.403 793.657 228.26C793.657 202.117 772.464 180.924 746.321 180.924C720.178 180.924 698.985 202.117 698.985 228.26C698.985 254.403 720.178 275.595 746.321 275.595Z" fill="#35DE90"/>
<path d="M793.341 220.982L699.883 233.879L719.162 373.581L812.62 360.684L793.341 220.982Z" fill="#35DE90"/>
<path d="M809.286 351.428L722.432 388.27L781.71 528.018L868.565 491.176L809.286 351.428Z" fill="#35DE90"/>
<path d="M477.321 380.876L388.525 348.883L442.39 200.347L531.349 232.339L477.321 380.876Z" fill="#35DE90"/>
<path d="M478.748 370.214L384.969 359.931L368.993 505.629L462.771 515.912L478.748 370.214Z" fill="#35DE90"/>
<path d="M746.32 181.084L486.626 169.006L502.623 460.203H705.35L746.32 181.084Z" fill="#35DE90"/>
<path d="M718.406 371.408L735.872 252.415L748.277 448.287L722.161 386.915C722.161 386.752 719.385 381.691 718.406 371.408Z" fill="url(#paint1_linear_18735_2524)"/>
<path d="M494.787 334.192L524.167 252.253L501.642 439.474L494.787 334.192Z" fill="url(#paint2_linear_18735_2524)"/>
<path d="M702.248 545.245H499.52L502.621 460.203H705.512L702.248 545.245Z" fill="#0096FA"/>
<path d="M751.218 995.588L724.612 750.421C724.612 746.34 724.122 742.423 723.306 738.669L702.25 545.245H592.235L614.434 750.421C614.434 754.338 614.76 758.092 615.576 761.683L641.04 995.588H751.218Z" fill="url(#paint3_linear_18735_2524)"/>
<path d="M630.92 750.42H520.906L499.523 545.244H609.375L630.92 750.42Z" fill="#0096FA"/>
<path d="M570.853 995.587H461.002L520.906 750.42H630.92L570.853 995.587Z" fill="#0096FA"/>
<path d="M575.911 805.429C606.291 805.429 630.918 780.801 630.918 750.421C630.918 720.041 606.291 695.414 575.911 695.414C545.531 695.414 520.903 720.041 520.903 750.421C520.903 780.801 545.531 805.429 575.911 805.429Z" fill="#0096FA"/>
<mask id="mask0_18735_2524" style="mask-type:luminance" maskUnits="userSpaceOnUse" x="875" y="517" width="101" height="75">
<path d="M893.388 557.977L875.597 547.041L892.736 528.76L960.149 517.497L975.002 555.202L956.231 591.275L893.388 557.977Z" fill="white"/>
</mask>
<g mask="url(#mask0_18735_2524)">
<path d="M927.91 554.844L930.097 531.77L864.938 525.592L862.75 548.666L927.91 554.844Z" fill="#C5D9FB"/>
<path d="M928.48 555.366C934.881 555.366 940.07 550.177 940.07 543.777C940.07 537.376 934.881 532.188 928.48 532.188C922.08 532.188 916.892 537.376 916.892 543.777C916.892 550.177 922.08 555.366 928.48 555.366Z" fill="#072F73"/>
</g>
<path d="M682.663 10.5137H582.931C579.503 10.5137 576.892 13.2881 576.892 16.5526V28.632C576.892 32.0598 574.117 34.6709 570.852 34.6709C567.425 34.6709 564.813 37.4461 564.813 40.7107V129.669C564.813 133.097 567.588 135.708 570.852 135.708H590.603C594.031 135.708 596.642 132.934 596.642 129.669V51.157C596.642 47.7293 599.417 45.1173 602.682 45.1173H682.826C686.254 45.1173 688.865 42.3429 688.865 39.0784V16.8794C688.865 13.2884 686.091 10.5137 682.663 10.5137Z" fill="black"/>
<path d="M610.678 119.712H582.277C578.686 119.712 575.911 116.774 575.911 113.346V87.5557H610.678V119.712Z" fill="#FCAA73"/>
<path d="M653.606 995.751L739.301 996.24C740.443 1001.46 744.034 1020.23 764.437 1021.54C802.959 1024.15 787.453 1042.6 787.453 1042.6H646.261L653.606 995.751Z" fill="#072F73"/>
<path d="M471.61 995.751L557.304 996.24C558.447 1001.46 562.037 1020.23 582.441 1021.54C620.962 1024.15 605.456 1042.6 605.456 1042.6H464.265L471.61 995.751Z" fill="#072F73"/>
<path d="M442.226 615.596H434.064V813.754H442.226V615.596Z" fill="white"/>
<path d="M247.171 858.804L240.315 1060.55H263.656L312.135 898.632L247.171 858.804Z" fill="#F06305"/>
<path d="M547.998 866.802L554.69 1068.55H531.512L483.034 906.629L547.998 866.802Z" fill="#F06305"/>
<path d="M653.116 799.063C653.116 799.879 653.116 800.858 652.953 801.674C651.81 809.019 646.26 814.733 639.078 816.039C638.099 816.202 636.956 816.365 635.814 816.365L585.051 818.976C581.46 819.14 578.195 820.446 575.583 822.404C571.502 825.506 568.891 830.402 568.891 835.952V894.387C568.891 894.714 568.891 895.203 568.891 895.53C568.727 915.28 562.036 933.562 550.773 948.089C548.325 951.354 545.55 954.618 542.448 957.556C532.165 967.839 519.27 975.511 504.906 979.592C504.09 979.918 503.274 980.082 502.294 980.245C495.276 982.041 487.767 983.019 480.095 983.019C473.403 983.019 467.038 982.204 460.835 980.898C459.692 980.735 458.713 980.408 457.57 980.082C452.51 978.776 447.613 976.98 442.88 974.858L378.895 946.946L343.637 931.603L306.911 915.607L282.591 904.997L243.09 975.185L195.101 1060.55H171.76L207.343 869.413C202.936 870.066 198.366 870.393 193.795 870.393C144.827 870.393 105 830.729 105 781.597C105 763.316 110.55 746.34 119.854 732.303C149.398 785.351 200.325 825.016 261.045 839.38C277.368 843.297 294.506 845.419 312.135 845.419C322.908 845.419 333.518 844.603 343.964 843.134C354.247 841.665 364.204 839.543 373.998 836.605C395.544 830.239 415.621 820.935 433.902 808.693C440.921 803.96 447.777 798.9 454.142 793.35C457.897 790.249 461.488 786.984 464.916 783.557C466.711 781.761 468.67 779.965 470.465 778.006L470.954 778.17L487.604 761.031L508.171 739.975C515.679 730.997 527.105 725.284 539.837 725.284C561.056 725.284 578.522 741.28 580.97 761.847H581.296C581.296 770.824 588.315 778.333 597.293 778.822L635.814 781.271C636.303 781.271 636.956 781.271 637.446 781.271C643.485 781.924 648.709 785.515 651.32 790.738C652.463 793.513 653.116 796.125 653.116 799.063Z" fill="url(#paint4_linear_18735_2524)"/>
<path d="M506.538 892.265L502.621 972.409L502.294 980.407L501.967 985.467L500.661 1011.58L497.886 1070.18H479.769L466.547 1016.81L460.507 992.16L457.57 980.245L436.023 893.081L506.538 892.265Z" fill="#FCAA73"/>
<path d="M522.37 829.587C531.114 829.587 538.203 822.499 538.203 813.754C538.203 805.01 531.114 797.921 522.37 797.921C513.626 797.921 506.538 805.01 506.538 813.754C506.538 822.499 513.626 829.587 522.37 829.587Z" fill="#F06305"/>
<path d="M506.538 764.459L538.203 771.968V813.754H506.538V764.459Z" fill="#F06305"/>
<path d="M648.548 802.329C655.85 802.329 661.77 796.409 661.77 789.107C661.77 781.805 655.85 775.886 648.548 775.886C641.246 775.886 635.327 781.805 635.327 789.107C635.327 796.409 641.246 802.329 648.548 802.329Z" fill="#8C3A03"/>
<path d="M558.281 773.272C561.526 773.272 564.157 770.641 564.157 767.396C564.157 764.151 561.526 761.521 558.281 761.521C555.035 761.521 552.405 764.151 552.405 767.396C552.405 770.641 555.035 773.272 558.281 773.272Z" fill="#8C3A03"/>
<path d="M552.405 862.561C528.411 862.561 506.375 854.399 488.747 840.851C488.747 840.851 488.747 840.851 488.583 840.851C473.077 828.772 460.998 812.45 454.306 793.679C451.204 796.29 447.94 798.902 444.675 801.351C406.807 829.752 365.021 839.546 350.004 842.321C348.045 842.647 346.086 842.973 344.127 843.3C335.64 865.335 336.13 884.922 336.13 884.922C336.13 886.065 336.13 887.044 336.13 888.187C336.13 903.53 338.741 918.221 343.637 931.769L378.895 947.112C367.305 930.3 360.614 910.059 360.614 888.187C360.614 886.555 360.613 884.922 360.776 883.29C406.643 878.23 443.533 864.03 465.732 853.42C481.565 867.947 500.988 878.394 522.534 883.617V926.872H568.891V886.229V876.435V861.418C563.504 862.071 557.955 862.561 552.405 862.561Z" fill="#072F73"/>
<mask id="mask1_18735_2524" style="mask-type:luminance" maskUnits="userSpaceOnUse" x="373" y="542" width="118" height="83">
<path d="M411.215 555.527L415.948 568.585L463.12 577.563L472.425 569.238L464.263 553.242L490.216 542.796L482.544 610.535L439.779 624.899L389.505 612.493L373.019 551.447L411.215 555.527Z" fill="white"/>
</mask>
<g mask="url(#mask1_18735_2524)">
<path d="M438.145 621.308C416.272 621.308 398.644 604.659 398.644 584.092C398.644 563.526 416.436 546.877 438.145 546.877C460.017 546.877 477.645 563.526 477.645 584.092C477.645 604.659 459.854 621.308 438.145 621.308ZM438.145 558.465C422.638 558.465 410.069 570.055 410.069 584.256C410.069 598.457 422.638 610.045 438.145 610.045C453.651 610.045 466.219 598.457 466.219 584.256C466.219 570.055 453.651 558.465 438.145 558.465Z" fill="#0C4EC0"/>
</g>
<defs>
<linearGradient id="paint0_linear_18735_2524" x1="632.502" y1="163.419" x2="639.667" y2="138.02" gradientUnits="userSpaceOnUse">
<stop stop-color="#FCAA73"/>
<stop offset="0.1097" stop-color="#FBA66C"/>
<stop offset="0.2687" stop-color="#F99959"/>
<stop offset="0.4576" stop-color="#F68539"/>
<stop offset="0.6679" stop-color="#F1690E"/>
<stop offset="0.7058" stop-color="#F06305"/>
</linearGradient>
<linearGradient id="paint1_linear_18735_2524" x1="748.721" y1="350.428" x2="713.88" y2="349.338" gradientUnits="userSpaceOnUse">
<stop offset="0.1881" stop-color="#35DE90"/>
<stop offset="0.4004" stop-color="#33DA8D"/>
<stop offset="0.6271" stop-color="#2DCD83"/>
<stop offset="0.8596" stop-color="#23B873"/>
<stop offset="1" stop-color="#1BA766"/>
</linearGradient>
<linearGradient id="paint2_linear_18735_2524" x1="520.299" y1="347.491" x2="490.331" y2="340.88" gradientUnits="userSpaceOnUse">
<stop offset="0.2273" stop-color="#35DE90"/>
<stop offset="0.4294" stop-color="#33DA8D"/>
<stop offset="0.6451" stop-color="#2DCD83"/>
<stop offset="0.8664" stop-color="#23B873"/>
<stop offset="1" stop-color="#1BA766"/>
</linearGradient>
<linearGradient id="paint3_linear_18735_2524" x1="718.988" y1="765.788" x2="560.48" y2="781.386" gradientUnits="userSpaceOnUse">
<stop offset="0.1004" stop-color="#0096FA"/>
<stop offset="0.3413" stop-color="#058DF8"/>
<stop offset="0.7352" stop-color="#1274F3"/>
<stop offset="0.9014" stop-color="#1968F0"/>
</linearGradient>
<linearGradient id="paint4_linear_18735_2524" x1="373.402" y1="768.483" x2="447.267" y2="1096.76" gradientUnits="userSpaceOnUse">
<stop offset="0.4415" stop-color="#FCAA73"/>
<stop offset="0.4966" stop-color="#FBA56B"/>
<stop offset="0.5833" stop-color="#F99654"/>
<stop offset="0.6902" stop-color="#F57E30"/>
<stop offset="0.7949" stop-color="#F06305"/>
</linearGradient>
</defs>
</svg>
